X: 36695
T: She Said She Couldn't Dance
R: polka
M: 2/4
K: Gmajor
|:Bc|dB GA|B3c|dB GA|BA A2|
dB GA|B3c|de dB|AG G2:|
|:g3e|f3 de|g3e|fd de|
g3e|d2 de|de dB|AG G2:|

